src/icons/cloud-download.svg

<?xml version="1.0" encoding="UTF-8"?>
<svg xmlns="http://www.w3.org/2000/svg" xmlns:xlink="http://www.w3.org/1999/xlink" width="32" height="32" viewBox="0 0 32 32" version="1.1">
<g id="surface1">
<path style=" stroke:none;fill-rule:nonzero;fill:rgb(0%,0%,0%);fill-opacity:1;" d="M 28.152344 15.066406 C 28.0625 12.917969 26.992188 10.929688 25.253906 9.664062 C 23.515625 8.402344 21.292969 8 19.222656 8.578125 C 17.789062 6.433594 15.371094 5.121094 12.800781 5.121094 C 8.707031 5.125 5.335938 8.332031 5.128906 12.421875 C 2.128906 13.246094 0 16.015625 0 19.199219 C 0.00390625 23.085938 3.152344 26.238281 7.039062 26.238281 L 26.238281 26.238281 C 29.417969 26.238281 31.996094 23.660156 32 20.480469 C 32 18.027344 30.410156 15.828125 28.152344 15.066406 M 16 22.664062 L 11.707031 18.371094 L 12.613281 17.46875 L 15.359375 20.214844 L 15.359375 12.800781 L 16.640625 12.800781 L 16.640625 20.214844 L 19.386719 17.46875 L 20.292969 18.371094 Z M 16 22.664062 "/>
</g>
</svg>

<svg role="img" viewBox="0 0 32 32" xmlns="http://www.w3.org/2000/svg"><path d="M28.152 15.066a7.046 7.046 0 0 0-8.93-6.488c-1.433-2.144-3.85-3.457-6.421-3.457a7.687 7.687 0 0 0-7.672 7.3C2.129 13.247 0 16.017 0 19.2a7.045 7.045 0 0 0 7.04 7.04h19.198A5.764 5.764 0 0 0 32 20.48c0-2.453-1.59-4.652-3.848-5.414M16 22.664l-4.293-4.293.906-.902 2.746 2.746V12.8h1.282v7.414l2.746-2.746.906.902Zm0 0" style="stroke:none;fill-rule:nonzero;fill:rgb(0%,0%,0%);fill-opacity:1"/></svg>
